apps/sim/public/logo/b&w/text/b&w.svg

<svg fill="none" height="29" viewBox="0 0 58 29" width="58" xmlns="http://www.w3.org/2000/svg"><g fill="#000"><path d="m0 21.9401h3.83372c0 1.0507.38338 1.8884 1.15012 2.5132.76675.5963 1.80327.8945 3.10958.8945 1.4199 0 2.51318-.2698 3.27998-.8093.7667-.568 1.1501-1.3205 1.1501-2.2577 0-.6815-.213-1.2495-.639-1.7038-.3975-.4544-1.1359-.8236-2.21499-1.1075l-3.66334-.852c-1.84587-.4544-3.22317-1.1501-4.13191-2.0872-.880332-.9372-1.3205-2.1725-1.3205-3.706 0-1.2779.326577-2.3854.97973-3.32253.68155-.93713 1.60448-1.66128 2.7688-2.17244 1.19271-.51117 2.55582-.76675 4.08931-.76675s2.854.26978 3.9615.80934c1.1359.53956 2.0163 1.29211 2.641 2.25764.6532.96554.994 2.11564 1.0223 3.45034h-3.8337c-.0284-1.0791-.3833-1.9169-1.0649-2.5132-.6816-.59637-1.63288-.89454-2.85399-.89454-1.24951 0-2.21505.26978-2.8966.80934-.68155.5396-1.02232 1.2779-1.02232 2.215 0 1.3915 1.02232 2.3429 3.06698 2.854l3.66333.8946c1.7607.3975 3.0812 1.0507 3.9615 1.9594.8804.8804 1.3205 2.0873 1.3205 3.6208 0 1.3063-.355 2.4564-1.0649 3.4503-.71.9655-1.6897 1.7181-2.9392 2.2577-1.2211.5111-2.6694.7667-4.34488.7667-2.44222 0-4.38748-.5964-5.83578-1.7891-1.448292-1.1927-2.17244-2.783-2.17244-4.7708z"/><path d="m19.1766 27.9888v-20.82986c1.5966.57946 2.3006.57946 4.0041 0v20.82986zm1.9594-22.20678c-.7099 0-1.3347-.25558-1.8742-.76674-.5112-.53957-.7668-1.16432-.7668-1.87427 0-.73835.2556-1.3631.7668-1.87426.5395-.511168 1.1643-.76675 1.8742-.76675.7384 0 1.3631.255582 1.8743.76675.5112.51116.7667 1.13591.7667 1.87426 0 .70995-.2555 1.3347-.7667 1.87427-.5112.51116-1.1359.76674-1.8743.76674z"/><path d="m30.2434 27.9888h-4.0041v-20.82986h3.5781v3.51456c.426-1.16431 1.2496-2.15146 2.3855-2.91821 1.1643-.79514 2.57-1.19271 4.2171-1.19271 1.8458 0 3.3793.49696 4.6004 1.49089 1.2212.99393 2.0163 2.31443 2.3855 3.96153h-.7242c.284-1.6471 1.0649-2.9676 2.3429-3.96153 1.2779-.99393 2.8539-1.49089 4.7282-1.49089 2.3854 0 4.2597.69575 5.6228 2.08725 1.3631 1.39147 2.0447 3.29417 2.0447 5.70797v13.631h-3.919v-12.6513c0-1.647-.4259-2.9107-1.2779-3.7911-.8235-.9087-1.9452-1.3631-3.3651-1.3631-.994 0-1.8743.2272-2.641.6816-.7384.4259-1.3205 1.0507-1.7465 1.8742-.426.8236-.639 1.7891-.639 2.8966v12.3531h-3.9615v-12.6938c0-1.6471-.4118-2.8966-1.2353-3.7486-.8235-.8803-1.9453-1.3205-3.3651-1.3205-.994 0-1.8743.2272-2.6411.6816-.7383.4259-1.3205 1.0507-1.7464 1.8742-.426.7952-.639 1.7465-.639 2.854z"/></g></svg>

<svg width="58" height="29" viewBox="0 0 58 29" fill="none" xmlns="http://www.w3.org/2000/svg">
<path d="M0 21.9401H3.83372C3.83372 22.9908 4.2171 23.8285 4.98384 24.4533C5.75059 25.0496 6.78711 25.3478 8.09342 25.3478C9.51332 25.3478 10.6066 25.078 11.3734 24.5385C12.1401 23.9705 12.5235 23.218 12.5235 22.2808C12.5235 21.5993 12.3105 21.0313 11.8845 20.577C11.487 20.1226 10.7486 19.7534 9.66951 19.4695L6.00617 18.6175C4.1603 18.1631 2.783 17.4674 1.87426 16.5303C0.993928 15.5931 0.55376 14.3578 0.55376 12.8243C0.55376 11.5464 0.880337 10.4389 1.53349 9.50177C2.21504 8.56464 3.13797 7.84049 4.30229 7.32933C5.495 6.81816 6.85811 6.56258 8.3916 6.56258C9.92509 6.56258 11.2456 6.83236 12.3531 7.37192C13.489 7.91148 14.3694 8.66403 14.9941 9.62956C15.6473 10.5951 15.9881 11.7452 16.0164 13.0799H12.1827C12.1543 12.0008 11.7994 11.163 11.1178 10.5667C10.4362 9.97033 9.48492 9.67216 8.26381 9.67216C7.0143 9.67216 6.04876 9.94194 5.36721 10.4815C4.68566 11.0211 4.34489 11.7594 4.34489 12.6965C4.34489 14.088 5.36721 15.0394 7.41187 15.5505L11.0752 16.4451C12.8359 16.8426 14.1564 17.4958 15.0367 18.4045C15.9171 19.2849 16.3572 20.4918 16.3572 22.0253C16.3572 23.3316 16.0022 24.4817 15.2923 25.4756C14.5823 26.4411 13.6026 27.1937 12.3531 27.7333C11.132 28.2444 9.6837 28.5 8.00822 28.5C5.566 28.5 3.62074 27.9036 2.17244 26.7109C0.724148 25.5182 0 23.9279 0 21.9401Z" fill="black"/>
<path d="M19.1766 27.9888V7.15894C20.7732 7.7384 21.4772 7.7384 23.1807 7.15894V27.9888H19.1766ZM21.136 5.78202C20.4261 5.78202 19.8013 5.52644 19.2618 5.01528C18.7506 4.47571 18.495 3.85096 18.495 3.14101C18.495 2.40266 18.7506 1.77791 19.2618 1.26675C19.8013 0.755582 20.4261 0.5 21.136 0.5C21.8744 0.5 22.4991 0.755582 23.0103 1.26675C23.5215 1.77791 23.777 2.40266 23.777 3.14101C23.777 3.85096 23.5215 4.47571 23.0103 5.01528C22.4991 5.52644 21.8744 5.78202 21.136 5.78202Z" fill="black"/>
<path d="M30.2434 27.9888H26.2393V7.15894H29.8174V10.6735C30.2434 9.50919 31.067 8.52204 32.2029 7.75529C33.3672 6.96015 34.7729 6.56258 36.42 6.56258C38.2658 6.56258 39.7993 7.05954 41.0204 8.05347C42.2416 9.0474 43.0367 10.3679 43.4059 12.015H42.6817C42.9657 10.3679 43.7466 9.0474 45.0246 8.05347C46.3025 7.05954 47.8785 6.56258 49.7528 6.56258C52.1382 6.56258 54.0125 7.25833 55.3756 8.64983C56.7387 10.0413 57.4203 11.944 57.4203 14.3578V27.9888H53.5013V15.3375C53.5013 13.6905 53.0754 12.4268 52.2234 11.5464C51.3999 10.6377 50.2782 10.1833 48.8583 10.1833C47.8643 10.1833 46.984 10.4105 46.2173 10.8649C45.4789 11.2908 44.8968 11.9156 44.4708 12.7391C44.0448 13.5627 43.8318 14.5282 43.8318 15.6357V27.9888H39.8703V15.295C39.8703 13.6479 39.4585 12.3984 38.635 11.5464C37.8115 10.6661 36.6897 10.2259 35.2699 10.2259C34.2759 10.2259 33.3956 10.4531 32.6288 10.9075C31.8905 11.3334 31.3083 11.9582 30.8824 12.7817C30.4564 13.5769 30.2434 14.5282 30.2434 15.6357V27.9888Z" fill="black"/>
</svg>
